shader_type canvas_item;

uniform vec3 fill_col: source_color;
uniform bool enabled = false;

void vertex() {
	// Called for every vertex the material is visible on.
}

void fragment() {
	if (enabled) {
		COLOR.rgb = fill_col;
	}
	// Called for every pixel the material is visible on.
}

//void light() {
//	// Called for every pixel for every light affecting the CanvasItem.
//	// Uncomment to replace the default light processing function with this one.
//}
